X: 129
T: 129. Keinen hat Gott verlassen
N: Derived from chor129.krn
C: Johann Sebastian Bach
%%abc-version 2.0
%%abcx-abcm2ps-target-version 5.9.1 (29 Sep 2008)
%%abc-creator hum2abc beta
%%abcx-conversion-date 2019/03/11 17:28:18
%%abc-edited-by Craig Stuart Sapp
%%humdrum-veritas 1034943716
%%humdrum-veritas-data 3346245006
%%
%%barnumbers 0
L: 1/4
M: C
%%staves [1 2 3 4]
V: 1 clef=treble
V: 2 clef=treble
V: 3 clef=treble-8
V: 4 clef=bass
K: G
[V:1] B [I:setbarnb 1]| 
[V:2] E | 
[V:3] G | 
[V:4] E, | 
[V:1] BBBe | 
[V:2] FE/^D/ E/F/G- | 
[V:3] F/G/AGc/B/ | 
[V:4] ^D,B,,E,/=D,/C, | 
[V:1] =d3/c/!fermata!BB/c/ | 
[V:2] GF!fermata!=DD | 
[V:3] A/G/A!fermata!GG | 
[V:4] D,2!fermata!G,,G, | 
[V:1] dFGA | 
[V:2] DD/C/B,E | 
[V:3] AAG/F/E | 
[V:4] F,/E,/D,E,/D,/C, | 
[V:1] !fermata!B3 :|]  
[V:2] !fermata!^D3 :|]  
[V:3] !fermata!F3 :|]  
[V:4] !fermata!B,,3 :|]  
[V:1] A [I:setbarnb 5]| 
[V:2] E | 
[V:3] E | 
[V:4] ^C, | 
[V:1] AAAA | 
[V:2] =DD/^C/ D/E/F | 
[V:3] F/E/F/G/Ad | 
[V:4] D,D,/E,/F,D, | 
[V:1] B2!fermata!AA | 
[V:2] G2!fermata!FA | 
[V:3] d2!fermata!dd | 
[V:4] G,,/A,,/B,,/C,/!fermata!D,F, | 
[V:1] B/^c/ddc | 
[V:2] GAA3/G/ | 
[V:3] dd/e/fe | 
[V:4] G,F,/G,/A,A,, | 
[V:1] !fermata!d3d | 
[V:2] !fermata!F3F | 
[V:3] !fermata!d3A | 
[V:4] !fermata!D,3D, | 
[V:1] BBcd | 
[V:2] DGG=F | 
[V:3] GdeB- | 
[V:4] G,/A,/G,/=F,/ E,/F,/E,/D,/ | 
[V:1] e2!fermata!BB | 
[V:2] E2!fermata!EE | 
[V:3] BA!fermata!GB | 
[V:4] C,/B,,/C,/D,/!fermata!E,G,, | 
[V:1] AG/F/F3/E/ | 
[V:2] EEE^D | 
[V:3] EcB/G/A | 
[V:4] C,B,,/A,,/B,,B,, | 
[V:1] !fermata!E3 |]  
[V:2] !fermata!B,3 |]  
[V:3] !fermata!^G3 |]  
[V:4] !fermata!E,,3 |]  



